src/assets/icons/21. Id.svg

<svg width="86" height="64" viewBox="0 0 86 64" fill="none" xmlns="http://www.w3.org/2000/svg">
<mask id="path-1-inside-1_532_14" fill="white">
<path d="M30.2458 0H8.9887C6.60196 0.00803621 4.31572 0.961803 2.63088 2.65234C0.946037 4.34287 -1.35289e-05 6.63231 1.45102e-10 9.01907L1.45102e-10 54.5699C1.45102e-10 55.7543 0.233285 56.9271 0.686536 58.0214C1.13979 59.1156 1.80413 60.1099 2.64162 60.9474C3.47912 61.7849 4.47338 62.4492 5.56762 62.9024C6.66186 63.3557 7.83467 63.589 9.01907 63.589H76.9809C79.3729 63.589 81.667 62.6388 83.3584 60.9474C85.0498 59.256 86 56.9619 86 54.5699V9.01907C86 7.83467 85.7667 6.66186 85.3135 5.56762C84.8602 4.47338 84.1959 3.47912 83.3584 2.64162C82.5209 1.80413 81.5266 1.13979 80.4324 0.686536C79.3381 0.233285 78.1653 0 76.9809 0L56.6653 0"/>
</mask>
<path d="M8.9887 0V-5H8.98028L8.97187 -4.99997L8.9887 0ZM1.45102e-10 9.01907L5 9.01907L5 9.01904L1.45102e-10 9.01907ZM76.9809 63.589L76.9809 68.589L76.9809 63.589ZM86 9.01907L91 9.01907L86 9.01907ZM76.9809 0V-5V0ZM30.2458 -5H8.9887V5H30.2458V-5ZM8.97187 -4.99997C5.26196 -4.98748 1.70827 -3.50496 -0.910613 -0.877231L6.17237 6.1819C6.92317 5.42857 7.94196 5.00355 9.00554 4.99997L8.97187 -4.99997ZM-0.910613 -0.877231C-3.5295 1.7505 -5.00002 5.30917 -5 9.0191L5 9.01904C4.99999 7.95546 5.42157 6.93524 6.17237 6.1819L-0.910613 -0.877231ZM-5 9.01907V54.5699H5V9.01907H-5ZM-5 54.5699C-5 56.4109 -4.63739 58.2339 -3.93286 59.9348L5.30593 56.1079C5.10396 55.6203 5 55.0977 5 54.5699H-5ZM-3.93286 59.9348C-3.22834 61.6357 -2.1957 63.1811 -0.89391 64.4829L6.17716 57.4118C5.80395 57.0386 5.50791 56.5956 5.30593 56.1079L-3.93286 59.9348ZM-0.89391 64.4829C0.407876 65.7847 1.95332 66.8173 3.6542 67.5218L7.48104 58.2831C6.99343 58.0811 6.55037 57.785 6.17716 57.4118L-0.89391 64.4829ZM3.6542 67.5218C5.35507 68.2264 7.17806 68.589 9.01907 68.589V58.589C8.49128 58.589 7.96865 58.485 7.48104 58.2831L3.6542 67.5218ZM9.01907 68.589H76.9809V58.589H9.01907V68.589ZM76.9809 68.589C80.699 68.589 84.2648 67.112 86.8939 64.4829L79.8228 57.4118C79.0691 58.1655 78.0469 58.589 76.9809 58.589L76.9809 68.589ZM86.8939 64.4829C89.523 61.8538 91 58.288 91 54.5699H81C81 55.6358 80.5766 56.6581 79.8228 57.4118L86.8939 64.4829ZM91 54.5699V9.01907H81V54.5699H91ZM91 9.01907C91 7.17806 90.6374 5.35507 89.9329 3.6542L80.6941 7.48104C80.896 7.96865 81 8.49128 81 9.01907L91 9.01907ZM89.9329 3.6542C89.2283 1.95334 88.1957 0.407886 86.8939 -0.89391L79.8228 6.17716C80.196 6.55036 80.4921 6.99341 80.6941 7.48104L89.9329 3.6542ZM86.8939 -0.89391C85.5921 -2.1957 84.0467 -3.22834 82.3458 -3.93286L78.519 5.30593C79.0066 5.50791 79.4496 5.80395 79.8228 6.17716L86.8939 -0.89391ZM82.3458 -3.93286C80.6449 -4.63739 78.8219 -5 76.9809 -5V5C77.5087 5 78.0313 5.10396 78.519 5.30593L82.3458 -3.93286ZM76.9809 -5L56.6653 -5V5L76.9809 5V-5Z" fill="#2380B0" mask="url(#path-1-inside-1_532_14)"/>
<path d="M25.2655 33.0476C29.6931 33.0476 33.2824 29.4583 33.2824 25.0306C33.2824 20.603 29.6931 17.0137 25.2655 17.0137C20.8378 17.0137 17.2485 20.603 17.2485 25.0306C17.2485 29.4583 20.8378 33.0476 25.2655 33.0476Z" fill="white"/>
<path d="M40.0241 47.4939V42.8477C40.0241 40.8342 39.2242 38.9032 37.8005 37.4794C36.3767 36.0557 34.4457 35.2559 32.4323 35.2559H18.0078C15.9943 35.2559 14.0633 36.0557 12.6396 37.4794C11.2159 38.9032 10.416 40.8342 10.416 42.8477V47.4939" fill="white"/>
<path d="M50 21H74.5975" stroke="white" stroke-width="5" stroke-miterlimit="10" stroke-linecap="round"/>
<path d="M50 32H74.5975" stroke="white" stroke-width="5" stroke-miterlimit="10" stroke-linecap="round"/>
<path d="M50 43H74.5975" stroke="white" stroke-width="5" stroke-miterlimit="10" stroke-linecap="round"/>
</svg>

<?xml version="1.0" encoding="utf-8"?>
<!-- Generator: Adobe Illustrator 26.0.1, SVG Export Plug-In . SVG Version: 6.00 Build 0)  -->
<svg version="1.1" id="Capa_1" xmlns="http://www.w3.org/2000/svg" xmlns:xlink="http://www.w3.org/1999/xlink" x="0px" y="0px"
	 viewBox="0 0 86 64" style="enable-background:new 0 0 86 64;" xml:space="preserve">
<style type="text/css">
	.st0{fill:#FFFFFF;filter:url(#Adobe_OpacityMaskFilter);}
	.st1{mask:url(#path-1-inside-1_532_14_00000155831016439071596760000005516665148510999429_);fill:#47BDDA;}
	.st2{fill:#FFFFFF;}
	.st3{fill:none;stroke:#FFFFFF;stroke-width:5;stroke-linecap:round;stroke-miterlimit:10;}
</style>
<defs>
	<filter id="Adobe_OpacityMaskFilter" filterUnits="userSpaceOnUse" x="-5" y="-5" width="96" height="73.6">
		<feColorMatrix  type="matrix" values="1 0 0 0 0  0 1 0 0 0  0 0 1 0 0  0 0 0 1 0"/>
	</filter>
</defs>
<mask maskUnits="userSpaceOnUse" x="-5" y="-5" width="96" height="73.6" id="path-1-inside-1_532_14_00000155831016439071596760000005516665148510999429_">
	<path class="st0" d="M30.2,0H9C6.6,0,4.3,1,2.6,2.7C0.9,4.3,0,6.6,0,9v45.6c0,1.2,0.2,2.4,0.7,3.5c0.5,1.1,1.1,2.1,2,2.9
		c0.8,0.8,1.8,1.5,2.9,2c1.1,0.5,2.3,0.7,3.5,0.7h68c2.4,0,4.7-1,6.4-2.6c1.7-1.7,2.6-4,2.6-6.4V9c0-1.2-0.2-2.4-0.7-3.5
		c-0.5-1.1-1.1-2.1-2-2.9c-0.8-0.8-1.8-1.5-2.9-2C79.3,0.2,78.2,0,77,0H56.7"/>
</mask>
<path class="st1" d="M9,0v-5h0l0,0L9,0z M0,9h5v0L0,9z M77,63.6v5V63.6z M86,9h5H86z M77,0v-5V0z M30.2-5H9V5h21.3V-5z M9-5
	C5.3-5,1.7-3.5-0.9-0.9l7.1,7.1C6.9,5.4,7.9,5,9,5L9-5z M-0.9-0.9C-3.5,1.8-5,5.3-5,9L5,9C5,8,5.4,6.9,6.2,6.2L-0.9-0.9z M-5,9v45.6
	H5V9H-5z M-5,54.6c0,1.8,0.4,3.7,1.1,5.4l9.2-3.8c-0.2-0.5-0.3-1-0.3-1.5H-5z M-3.9,59.9c0.7,1.7,1.7,3.2,3,4.5l7.1-7.1
	c-0.4-0.4-0.7-0.8-0.9-1.3L-3.9,59.9z M-0.9,64.5c1.3,1.3,2.8,2.3,4.5,3l3.8-9.2c-0.5-0.2-0.9-0.5-1.3-0.9L-0.9,64.5z M3.7,67.5
	c1.7,0.7,3.5,1.1,5.4,1.1v-10c-0.5,0-1.1-0.1-1.5-0.3L3.7,67.5z M9,68.6h68v-10H9V68.6z M77,68.6c3.7,0,7.3-1.5,9.9-4.1l-7.1-7.1
	c-0.8,0.8-1.8,1.2-2.8,1.2V68.6z M86.9,64.5c2.6-2.6,4.1-6.2,4.1-9.9H81c0,1.1-0.4,2.1-1.2,2.8L86.9,64.5z M91,54.6V9H81v45.6H91z
	 M91,9c0-1.8-0.4-3.7-1.1-5.4l-9.2,3.8C80.9,8,81,8.5,81,9H91z M89.9,3.7c-0.7-1.7-1.7-3.2-3-4.5l-7.1,7.1c0.4,0.4,0.7,0.8,0.9,1.3
	L89.9,3.7z M86.9-0.9c-1.3-1.3-2.8-2.3-4.5-3l-3.8,9.2c0.5,0.2,0.9,0.5,1.3,0.9L86.9-0.9z M82.3-3.9C80.6-4.6,78.8-5,77-5V5
	c0.5,0,1.1,0.1,1.5,0.3L82.3-3.9z M77-5H56.7V5H77V-5z"/>
<path class="st2" d="M25.3,33c4.4,0,8-3.6,8-8c0-4.4-3.6-8-8-8c-4.4,0-8,3.6-8,8C17.2,29.5,20.8,33,25.3,33z"/>
<path class="st2" d="M40,47.5v-4.6c0-2-0.8-3.9-2.2-5.4c-1.4-1.4-3.4-2.2-5.4-2.2H18c-2,0-3.9,0.8-5.4,2.2c-1.4,1.4-2.2,3.4-2.2,5.4
	v4.6"/>
<path class="st3" d="M50,21h24.6"/>
<path class="st3" d="M50,32h24.6"/>
<path class="st3" d="M50,43h24.6"/>
</svg>
